magic/assets/logos/magic.svg

<?xml version="1.0" encoding="UTF-8" standalone="no"?>
<svg
   width="48"
   height="22"
   viewBox="0 0 48 22"
   fill="none"
   version="1.1"
   id="svg4"
   sodipodi:docname="magic-jm.svg"
   inkscape:version="1.2.1 (9c6d41e410, 2022-07-14)"
   xmlns:inkscape="http://www.inkscape.org/namespaces/inkscape"
   xmlns:sodipodi="http://sodipodi.sourceforge.net/DTD/sodipodi-0.dtd"
   xmlns="http://www.w3.org/2000/svg"
   xmlns:svg="http://www.w3.org/2000/svg">
  <defs
     id="defs8" />
  <sodipodi:namedview
     id="namedview6"
     pagecolor="#505050"
     bordercolor="#ffffff"
     borderopacity="1"
     inkscape:showpageshadow="0"
     inkscape:pageopacity="0"
     inkscape:pagecheckerboard="1"
     inkscape:deskcolor="#505050"
     showgrid="false"
     inkscape:zoom="15.170655"
     inkscape:cx="32.925409"
     inkscape:cy="8.6680505"
     inkscape:window-width="1620"
     inkscape:window-height="1010"
     inkscape:window-x="3833"
     inkscape:window-y="-6"
     inkscape:window-maximized="1"
     inkscape:current-layer="svg4" />
  <path
     d="M 4.712,14.08 C 4.31733,14.08 4.03467,13.9947 3.864,13.824 3.69333,13.6427 3.608,13.3067 3.608,12.816 3.608,12.4853 3.64,12.064 3.704,11.552 3.77867,11.0293 3.896,10.3147 4.056,9.408 4.33333,7.73333 4.552,6.28267 4.712,5.056 4.808,4.288 4.856,3.648 4.856,3.136 4.856,2.656 4.68,2.416 4.328,2.416 4.05067,2.416 3.71467,2.56 3.32,2.848 2.936,3.12533 2.50933,3.57333 2.04,4.192 1.89067,4.39467 1.72533,4.496 1.544,4.496 1.39467,4.496 1.26133,4.42667 1.144,4.288 1.03733,4.13867 0.984,3.97333 0.984,3.792 0.984,3.62133 1.016,3.45067 1.08,3.28 1.15467,3.09867 1.272,2.896 1.432,2.672 1.944,1.95733 2.51467,1.408 3.144,1.024 3.77333,0.629333 4.40267,0.431999 5.032,0.431999 c 0.58667,0 1.03467,0.186667 1.344,0.560001 0.32,0.37333 0.48,0.91733 0.48,1.632 0,0.288 -0.02667,0.62933 -0.08,1.024 C 6.72267,4.032 6.67467,4.34667 6.632,4.592 6.58933,4.83733 6.55733,5.008 6.536,5.104 7.144,3.36533 7.82667,2.15467 8.584,1.472 9.34133,0.778666 10.1733,0.431999 11.08,0.431999 c 0.6933,0 1.2373,0.245334 1.632,0.736001 0.4053,0.49067 0.608,1.184 0.608,2.08 0,0.352 -0.048,0.78933 -0.144,1.312 0.5333,-1.472 1.1573,-2.528 1.872,-3.168 0.7147,-0.640001 1.536,-0.960001 2.464,-0.960001 0.7467,0 1.3173,0.24 1.712,0.720001 0.4053,0.48 0.608,1.152 0.608,2.016 0,0.46933 -0.0693,1.04 -0.208,1.712 l -0.976,4.576 c -0.1067,0.53333 -0.16,0.992 -0.16,1.376 0,0.448 0.1013,0.784 0.304,1.008 0.2133,0.224 0.5067,0.336 0.88,0.336 0.352,0 0.6933,-0.1173 1.024,-0.352 0.3413,-0.2347 0.7413,-0.624 1.2,-1.168 0.128,-0.1493 0.272,-0.224 0.432,-0.224 0.1387,0 0.2453,0.064 0.32,0.192 0.0853,0.128 0.128,0.304 0.128,0.528 0,0.416 -0.1013,0.7467 -0.304,0.992 -0.5547,0.672 -1.104,1.1627 -1.648,1.472 -0.544,0.3093 -1.1147,0.464 -1.712,0.464 -0.9067,0 -1.616,-0.2667 -2.128,-0.8 -0.512,-0.544 -0.768,-1.2693 -0.768,-2.176 0,-0.6293 0.128,-1.54133 0.384,-2.736 L 17.24,5.44 C 17.2613,5.344 17.2987,5.17333 17.352,4.928 17.4053,4.68267 17.448,4.45333 17.48,4.24 17.512,4.016 17.528,3.79733 17.528,3.584 17.528,3.21067 17.4533,2.93333 17.304,2.752 17.1653,2.56 16.9627,2.464 16.696,2.464 c -0.5013,0 -1.0293,0.32533 -1.584,0.976 -0.544,0.64 -1.0667,1.70667 -1.568,3.2 -0.4907,1.49333 -0.8907,3.4347 -1.2,5.824 -0.0747,0.64 -0.208,1.072 -0.4,1.296 -0.1813,0.2133 -0.48,0.32 -0.896,0.32 -0.3627,0 -0.6293,-0.0853 -0.8,-0.256 -0.16,-0.1707 -0.24,-0.4907 -0.24,-0.96 0,-0.4373 0.0587,-1.008 0.176,-1.712 0.1173,-0.7147 0.2667,-1.552 0.448,-2.512 0.4907,-2.58133 0.736,-4.24533 0.736,-4.992 0,-0.40533 -0.08,-0.704 -0.24,-0.896 C 10.9787,2.56 10.7493,2.464 10.44,2.464 9.91733,2.464 9.37867,2.76267 8.824,3.36 8.26933,3.94667 7.72533,4.99733 7.192,6.512 6.66933,8.016 6.232,10.0533 5.88,12.624 5.80533,13.168 5.69333,13.5467 5.544,13.76 5.40533,13.9733 5.128,14.08 4.712,14.08 Z m 18.8927,0 c -0.6613,0 -1.1893,-0.24 -1.584,-0.72 -0.3946,-0.48 -0.592,-1.1093 -0.592,-1.888 0,-0.8533 0.1974,-1.65867 0.592,-2.416 0.3947,-0.768 0.9174,-1.38133 1.568,-1.84 0.6614,-0.46933 1.36,-0.704 2.0961,-0.704 0.2346,0 0.3893,0.048 0.4639,0.144 0.0854,0.08533 0.1547,0.24533 0.2081,0.48 0.2239,-0.04267 0.4586,-0.064 0.704,-0.064 0.5226,0 0.7839,0.18667 0.7839,0.56 0,0.224 -0.0799,0.75733 -0.2399,1.6 -0.2454,1.2267 -0.368,2.08 -0.368,2.56 0,0.16 0.0373,0.288 0.112,0.384 0.0853,0.096 0.1919,0.144 0.3199,0.144 0.2027,0 0.4481,-0.128 0.736,-0.384 0.288,-0.2667 0.6774,-0.6933 1.1681,-1.28 0.128,-0.1493 0.272,-0.224 0.432,-0.224 0.1386,0 0.2453,0.064 0.3199,0.192 0.0854,0.128 0.1281,0.304 0.1281,0.528 0,0.4267 -0.1014,0.7573 -0.304,0.992 -0.4374,0.544 -0.9014,1.0027 -1.392,1.376 -0.4907,0.3733 -0.9654,0.56 -1.4241,0.56 -0.352,0 -0.6773,-0.1173 -0.9759,-0.352 -0.2881,-0.2453 -0.5067,-0.576 -0.6561,-0.992 -0.5546,0.896 -1.2533,1.344 -2.096,1.344 z m 0.576,-1.616 c 0.2347,0 0.4587,-0.1387 0.672,-0.416 0.2134,-0.2773 0.3681,-0.6453 0.4641,-1.104 L 25.9088,8 c -0.4481,0.01067 -0.8641,0.18133 -1.2481,0.512 -0.3733,0.32 -0.672,0.74667 -0.896,1.28 -0.224,0.5333 -0.336,1.0987 -0.336,1.696 0,0.3307 0.064,0.576 0.192,0.736 0.1387,0.16 0.3254,0.24 0.56,0.24 z m 13.3137,-2 c 0.1386,0 0.2453,0.0693 0.32,0.208 0.0853,0.128 0.128,0.2933 0.128,0.496 0,0.2453 -0.0374,0.4373 -0.112,0.576 -0.0747,0.1387 -0.192,0.2613 -0.352,0.368 -0.9174,0.6187 -1.5894,1.0773 -2.016,1.376 l -1.024,0.688 c -0.4054,2.208 -0.9387,3.9413 -1.6,5.2 -0.6507,1.2693 -1.4827,1.904 -2.496,1.904 -0.544,0 -0.9867,-0.1707 -1.328,-0.512 -0.3414,-0.3307 -0.512,-0.768 -0.512,-1.312 0,-0.7573 0.2986,-1.5733 0.896,-2.448 0.5973,-0.864 1.7173,-1.9307 3.36,-3.2 l 0.096,-0.624 c -0.1814,0.288 -0.4214,0.512 -0.72,0.672 -0.288,0.1493 -0.576,0.224 -0.864,0.224 -0.6614,0 -1.1894,-0.24 -1.584,-0.72 -0.3947,-0.48 -0.592,-1.1093 -0.592,-1.888 0,-0.8533 0.1973,-1.65867 0.592,-2.416 0.3946,-0.768 0.9173,-1.38133 1.568,-1.84 0.6613,-0.46933 1.36,-0.704 2.096,-0.704 0.2346,0 0.3893,0.048 0.464,0.144 0.0853,0.08533 0.1546,0.24533 0.208,0.48 0.2026,-0.04267 0.4373,-0.064 0.704,-0.064 0.2666,0 0.4533,0.04267 0.56,0.128 0.1173,0.07467 0.176,0.22933 0.176,0.464 0,0.128 -0.0054,0.22933 -0.016,0.304 -0.0427,0.33067 -0.176,1.168 -0.4,2.512 -0.0427,0.256 -0.0907,0.5387 -0.144,0.848 -0.0427,0.2987 -0.0907,0.6187 -0.144,0.96 0.8213,-0.64 1.6106,-1.2053 2.368,-1.696 0.1386,-0.0853 0.2613,-0.128 0.368,-0.128 z m -5.648,2 c 0.2453,0 0.48,-0.1493 0.704,-0.448 0.224,-0.2987 0.384,-0.7253 0.48,-1.28 L 33.5424,8 c -0.4374,0.01067 -0.8427,0.18133 -1.216,0.512 -0.3734,0.32 -0.672,0.74667 -0.896,1.28 -0.224,0.5333 -0.336,1.0987 -0.336,1.696 0,0.3307 0.064,0.576 0.192,0.736 0.1386,0.16 0.3253,0.24 0.56,0.24 z m -1.328,7.264 c 0.2666,0 0.5653,-0.32 0.896,-0.96 0.3413,-0.64 0.6666,-1.6587 0.976,-3.056 -0.8214,0.704 -1.4134,1.3387 -1.776,1.904 -0.3627,0.5653 -0.544,1.0613 -0.544,1.488 0,0.1813 0.032,0.3307 0.096,0.448 0.0746,0.1173 0.192,0.176 0.352,0.176 z m 8.5144,-14.24 c -0.448,0 -2.928068,1.1105344 -3.152068,0.9078644 C 35.656732,6.1825344 37.6888,4.67733 37.6888,4.304 37.6888,3.93067 34.290427,1.1976012 34.578427,0.95227119 34.877027,0.69627119 38.7874,2.992 39.2248,2.992 c 0.3946,0 4.816295,-2.23450847 5.061695,-2.04250847 C 44.531795,1.1414915 40.5528,3.744 40.5528,4.096 c 0,0.42667 1.697432,2.5490406 1.420132,2.8050406 C 41.695532,7.1463706 39.4914,5.488 39.0328,5.488 Z m -0.128,8.592 c -0.6934,0 -1.2,-0.2453 -1.52,-0.736 -0.3094,-0.4907 -0.464,-1.1413 -0.464,-1.952 0,-0.48 0.0586,-1.0933 0.176,-1.84 0.128,-0.75733 0.288,-1.46133 0.48,-2.112 0.096,-0.34133 0.224,-0.576 0.384,-0.704 0.16,-0.128 0.416,-0.192 0.768,-0.192 0.544,0 0.816,0.18133 0.816,0.544 0,0.26667 -0.1014,0.88533 -0.304,1.856 -0.256,1.1733 -0.384,1.968 -0.384,2.384 0,0.32 0.0426,0.5653 0.128,0.736 0.0853,0.1707 0.2293,0.256 0.432,0.256 0.192,0 0.432,-0.1333 0.72,-0.4 0.288,-0.2667 0.672,-0.688 1.152,-1.264 0.128,-0.1493 0.272,-0.224 0.432,-0.224 0.1386,0 0.2453,0.064 0.32,0.192 0.0853,0.128 0.128,0.304 0.128,0.528 0,0.4267 -0.1014,0.7573 -0.304,0.992 -1.056,1.2907 -2.0427,1.936 -2.96,1.936 z m 5.0954,0 c -1.0133,0 -1.808,-0.2933 -2.384,-0.88 -0.5653,-0.5973 -0.848,-1.3813 -0.848,-2.352 0,-0.864 0.1707,-1.62133 0.512,-2.272 0.3414,-0.65067 0.784,-1.152 1.328,-1.504 0.544,-0.352 1.1147,-0.528 1.712,-0.528 0.5867,0 1.04,0.176 1.36,0.528 0.3307,0.34133 0.496,0.784 0.496,1.328 0,0.448 -0.1013,0.82667 -0.304,1.136 -0.192,0.30933 -0.448,0.464 -0.768,0.464 -0.2026,0 -0.368,-0.048 -0.496,-0.144 -0.1173,-0.096 -0.176,-0.22933 -0.176,-0.4 0,-0.07467 0.0107,-0.16 0.032,-0.256 0.0214,-0.096 0.0374,-0.16533 0.048,-0.208 0.0534,-0.16 0.08,-0.30933 0.08,-0.448 0,-0.13867 -0.0373,-0.24533 -0.112,-0.32 -0.064,-0.07467 -0.16,-0.112 -0.288,-0.112 -0.2453,0 -0.4746,0.112 -0.688,0.336 -0.2133,0.21333 -0.384,0.50667 -0.512,0.88 -0.128,0.37333 -0.192,0.784 -0.192,1.232 0,0.608 0.1227,1.072 0.368,1.392 0.256,0.3093 0.6134,0.464 1.072,0.464 0.3627,0 0.6934,-0.1067 0.992,-0.32 0.3094,-0.2133 0.6134,-0.528 0.912,-0.944 0.128,-0.16 0.272,-0.24 0.432,-0.24 0.1387,0 0.2454,0.064 0.32,0.192 0.0854,0.128 0.128,0.304 0.128,0.528 0,0.384 -0.0906,0.7147 -0.272,0.992 -0.288,0.448 -0.6666,0.8053 -1.136,1.072 -0.4693,0.256 -1.008,0.384 -1.616,0.384 z"
     fill="#ffffff"
     id="path2"
     sodipodi:nodetypes="scscccssccscscccscscsccscscsscsccscsccscscsscsccscscsccccscsccscsccccsscsccsccsscscsccscsccsccsscccccscsscscccccscsccccscsccsccscscccccsssccccscsscccscsscscscscsscsccssscscsscscscsscscsscscscsccscscsscsccscsccs" />
</svg>

<svg width="48" height="22" viewBox="0 0 48 22" fill="none" xmlns="http://www.w3.org/2000/svg">
<path d="M4.712 14.08C4.31733 14.08 4.03467 13.9947 3.864 13.824C3.69333 13.6427 3.608 13.3067 3.608 12.816C3.608 12.4853 3.64 12.064 3.704 11.552C3.77867 11.0293 3.896 10.3147 4.056 9.408C4.33333 7.73333 4.552 6.28267 4.712 5.056C4.808 4.288 4.856 3.648 4.856 3.136C4.856 2.656 4.68 2.416 4.328 2.416C4.05067 2.416 3.71467 2.56 3.32 2.848C2.936 3.12533 2.50933 3.57333 2.04 4.192C1.89067 4.39467 1.72533 4.496 1.544 4.496C1.39467 4.496 1.26133 4.42667 1.144 4.288C1.03733 4.13867 0.984 3.97333 0.984 3.792C0.984 3.62133 1.016 3.45067 1.08 3.28C1.15467 3.09867 1.272 2.896 1.432 2.672C1.944 1.95733 2.51467 1.408 3.144 1.024C3.77333 0.629333 4.40267 0.431999 5.032 0.431999C5.61867 0.431999 6.06667 0.618666 6.376 0.992C6.696 1.36533 6.856 1.90933 6.856 2.624C6.856 2.912 6.82933 3.25333 6.776 3.648C6.72267 4.032 6.67467 4.34667 6.632 4.592C6.58933 4.83733 6.55733 5.008 6.536 5.104C7.144 3.36533 7.82667 2.15467 8.584 1.472C9.34133 0.778666 10.1733 0.431999 11.08 0.431999C11.7733 0.431999 12.3173 0.677333 12.712 1.168C13.1173 1.65867 13.32 2.352 13.32 3.248C13.32 3.6 13.272 4.03733 13.176 4.56C13.7093 3.088 14.3333 2.032 15.048 1.392C15.7627 0.751999 16.584 0.431999 17.512 0.431999C18.2587 0.431999 18.8293 0.671999 19.224 1.152C19.6293 1.632 19.832 2.304 19.832 3.168C19.832 3.63733 19.7627 4.208 19.624 4.88L18.648 9.456C18.5413 9.98933 18.488 10.448 18.488 10.832C18.488 11.28 18.5893 11.616 18.792 11.84C19.0053 12.064 19.2987 12.176 19.672 12.176C20.024 12.176 20.3653 12.0587 20.696 11.824C21.0373 11.5893 21.4373 11.2 21.896 10.656C22.024 10.5067 22.168 10.432 22.328 10.432C22.4667 10.432 22.5733 10.496 22.648 10.624C22.7333 10.752 22.776 10.928 22.776 11.152C22.776 11.568 22.6747 11.8987 22.472 12.144C21.9173 12.816 21.368 13.3067 20.824 13.616C20.28 13.9253 19.7093 14.08 19.112 14.08C18.2053 14.08 17.496 13.8133 16.984 13.28C16.472 12.736 16.216 12.0107 16.216 11.104C16.216 10.4747 16.344 9.56267 16.6 8.368L17.24 5.44C17.2613 5.344 17.2987 5.17333 17.352 4.928C17.4053 4.68267 17.448 4.45333 17.48 4.24C17.512 4.016 17.528 3.79733 17.528 3.584C17.528 3.21067 17.4533 2.93333 17.304 2.752C17.1653 2.56 16.9627 2.464 16.696 2.464C16.1947 2.464 15.6667 2.78933 15.112 3.44C14.568 4.08 14.0453 5.14667 13.544 6.64C13.0533 8.13333 12.6533 10.0747 12.344 12.464C12.2693 13.104 12.136 13.536 11.944 13.76C11.7627 13.9733 11.464 14.08 11.048 14.08C10.6853 14.08 10.4187 13.9947 10.248 13.824C10.088 13.6533 10.008 13.3333 10.008 12.864C10.008 12.4267 10.0667 11.856 10.184 11.152C10.3013 10.4373 10.4507 9.6 10.632 8.64C11.1227 6.05867 11.368 4.39467 11.368 3.648C11.368 3.24267 11.288 2.944 11.128 2.752C10.9787 2.56 10.7493 2.464 10.44 2.464C9.91733 2.464 9.37867 2.76267 8.824 3.36C8.26933 3.94667 7.72533 4.99733 7.192 6.512C6.66933 8.016 6.232 10.0533 5.88 12.624C5.80533 13.168 5.69333 13.5467 5.544 13.76C5.40533 13.9733 5.128 14.08 4.712 14.08ZM23.6047 14.08C22.9434 14.08 22.4154 13.84 22.0207 13.36C21.6261 12.88 21.4287 12.2507 21.4287 11.472C21.4287 10.6187 21.6261 9.81333 22.0207 9.056C22.4154 8.288 22.9381 7.67467 23.5887 7.216C24.2501 6.74667 24.9487 6.512 25.6848 6.512C25.9194 6.512 26.0741 6.56 26.1487 6.656C26.2341 6.74133 26.3034 6.90133 26.3568 7.136C26.5807 7.09333 26.8154 7.072 27.0608 7.072C27.5834 7.072 27.8447 7.25867 27.8447 7.632C27.8447 7.856 27.7648 8.38933 27.6048 9.232C27.3594 10.4587 27.2368 11.312 27.2368 11.792C27.2368 11.952 27.2741 12.08 27.3488 12.176C27.4341 12.272 27.5407 12.32 27.6687 12.32C27.8714 12.32 28.1168 12.192 28.4047 11.936C28.6927 11.6693 29.0821 11.2427 29.5728 10.656C29.7008 10.5067 29.8448 10.432 30.0048 10.432C30.1434 10.432 30.2501 10.496 30.3247 10.624C30.4101 10.752 30.4528 10.928 30.4528 11.152C30.4528 11.5787 30.3514 11.9093 30.1488 12.144C29.7114 12.688 29.2474 13.1467 28.7568 13.52C28.2661 13.8933 27.7914 14.08 27.3327 14.08C26.9807 14.08 26.6554 13.9627 26.3568 13.728C26.0687 13.4827 25.8501 13.152 25.7007 12.736C25.1461 13.632 24.4474 14.08 23.6047 14.08ZM24.1807 12.464C24.4154 12.464 24.6394 12.3253 24.8527 12.048C25.0661 11.7707 25.2208 11.4027 25.3168 10.944L25.9088 8C25.4607 8.01067 25.0447 8.18133 24.6607 8.512C24.2874 8.832 23.9887 9.25867 23.7647 9.792C23.5407 10.3253 23.4287 10.8907 23.4287 11.488C23.4287 11.8187 23.4927 12.064 23.6207 12.224C23.7594 12.384 23.9461 12.464 24.1807 12.464ZM37.4944 10.464C37.633 10.464 37.7397 10.5333 37.8144 10.672C37.8997 10.8 37.9424 10.9653 37.9424 11.168C37.9424 11.4133 37.905 11.6053 37.8304 11.744C37.7557 11.8827 37.6384 12.0053 37.4784 12.112C36.561 12.7307 35.889 13.1893 35.4624 13.488L34.4384 14.176C34.033 16.384 33.4997 18.1173 32.8384 19.376C32.1877 20.6453 31.3557 21.28 30.3424 21.28C29.7984 21.28 29.3557 21.1093 29.0144 20.768C28.673 20.4373 28.5024 20 28.5024 19.456C28.5024 18.6987 28.801 17.8827 29.3984 17.008C29.9957 16.144 31.1157 15.0773 32.7584 13.808L32.8544 13.184C32.673 13.472 32.433 13.696 32.1344 13.856C31.8464 14.0053 31.5584 14.08 31.2704 14.08C30.609 14.08 30.081 13.84 29.6864 13.36C29.2917 12.88 29.0944 12.2507 29.0944 11.472C29.0944 10.6187 29.2917 9.81333 29.6864 9.056C30.081 8.288 30.6037 7.67467 31.2544 7.216C31.9157 6.74667 32.6144 6.512 33.3504 6.512C33.585 6.512 33.7397 6.56 33.8144 6.656C33.8997 6.74133 33.969 6.90133 34.0224 7.136C34.225 7.09333 34.4597 7.072 34.7264 7.072C34.993 7.072 35.1797 7.11467 35.2864 7.2C35.4037 7.27467 35.4624 7.42933 35.4624 7.664C35.4624 7.792 35.457 7.89333 35.4464 7.968C35.4037 8.29867 35.2704 9.136 35.0464 10.48C35.0037 10.736 34.9557 11.0187 34.9024 11.328C34.8597 11.6267 34.8117 11.9467 34.7584 12.288C35.5797 11.648 36.369 11.0827 37.1264 10.592C37.265 10.5067 37.3877 10.464 37.4944 10.464ZM31.8464 12.464C32.0917 12.464 32.3264 12.3147 32.5504 12.016C32.7744 11.7173 32.9344 11.2907 33.0304 10.736L33.5424 8C33.105 8.01067 32.6997 8.18133 32.3264 8.512C31.953 8.832 31.6544 9.25867 31.4304 9.792C31.2064 10.3253 31.0944 10.8907 31.0944 11.488C31.0944 11.8187 31.1584 12.064 31.2864 12.224C31.425 12.384 31.6117 12.464 31.8464 12.464ZM30.5184 19.728C30.785 19.728 31.0837 19.408 31.4144 18.768C31.7557 18.128 32.081 17.1093 32.3904 15.712C31.569 16.416 30.977 17.0507 30.6144 17.616C30.2517 18.1813 30.0704 18.6773 30.0704 19.104C30.0704 19.2853 30.1024 19.4347 30.1664 19.552C30.241 19.6693 30.3584 19.728 30.5184 19.728ZM39.0328 5.488C38.5848 5.488 38.2488 5.38667 38.0248 5.184C37.8008 4.97067 37.6888 4.67733 37.6888 4.304C37.6888 3.93067 37.8328 3.62133 38.1208 3.376C38.4194 3.12 38.7874 2.992 39.2248 2.992C39.6194 2.992 39.9394 3.088 40.1848 3.28C40.4301 3.472 40.5528 3.744 40.5528 4.096C40.5528 4.52267 40.4141 4.864 40.1368 5.12C39.8594 5.36533 39.4914 5.488 39.0328 5.488ZM38.9048 14.08C38.2114 14.08 37.7048 13.8347 37.3848 13.344C37.0754 12.8533 36.9208 12.2027 36.9208 11.392C36.9208 10.912 36.9794 10.2987 37.0968 9.552C37.2248 8.79467 37.3848 8.09067 37.5768 7.44C37.6728 7.09867 37.8008 6.864 37.9608 6.736C38.1208 6.608 38.3768 6.544 38.7288 6.544C39.2728 6.544 39.5448 6.72533 39.5448 7.088C39.5448 7.35467 39.4434 7.97333 39.2408 8.944C38.9848 10.1173 38.8568 10.912 38.8568 11.328C38.8568 11.648 38.8994 11.8933 38.9848 12.064C39.0701 12.2347 39.2141 12.32 39.4168 12.32C39.6088 12.32 39.8488 12.1867 40.1368 11.92C40.4248 11.6533 40.8088 11.232 41.2888 10.656C41.4168 10.5067 41.5608 10.432 41.7208 10.432C41.8594 10.432 41.9661 10.496 42.0408 10.624C42.1261 10.752 42.1688 10.928 42.1688 11.152C42.1688 11.5787 42.0674 11.9093 41.8648 12.144C40.8088 13.4347 39.8221 14.08 38.9048 14.08ZM44.0002 14.08C42.9869 14.08 42.1922 13.7867 41.6162 13.2C41.0509 12.6027 40.7682 11.8187 40.7682 10.848C40.7682 9.984 40.9389 9.22667 41.2802 8.576C41.6216 7.92533 42.0642 7.424 42.6082 7.072C43.1522 6.72 43.7229 6.544 44.3202 6.544C44.9069 6.544 45.3602 6.72 45.6802 7.072C46.0109 7.41333 46.1762 7.856 46.1762 8.4C46.1762 8.848 46.0749 9.22667 45.8722 9.536C45.6802 9.84533 45.4242 10 45.1042 10C44.9016 10 44.7362 9.952 44.6082 9.856C44.4909 9.76 44.4322 9.62667 44.4322 9.456C44.4322 9.38133 44.4429 9.296 44.4642 9.2C44.4856 9.104 44.5016 9.03467 44.5122 8.992C44.5656 8.832 44.5922 8.68267 44.5922 8.544C44.5922 8.40533 44.5549 8.29867 44.4802 8.224C44.4162 8.14933 44.3202 8.112 44.1922 8.112C43.9469 8.112 43.7176 8.224 43.5042 8.448C43.2909 8.66133 43.1202 8.95467 42.9922 9.328C42.8642 9.70133 42.8002 10.112 42.8002 10.56C42.8002 11.168 42.9229 11.632 43.1682 11.952C43.4242 12.2613 43.7816 12.416 44.2402 12.416C44.6029 12.416 44.9336 12.3093 45.2322 12.096C45.5416 11.8827 45.8456 11.568 46.1442 11.152C46.2722 10.992 46.4162 10.912 46.5762 10.912C46.7149 10.912 46.8216 10.976 46.8962 11.104C46.9816 11.232 47.0242 11.408 47.0242 11.632C47.0242 12.016 46.9336 12.3467 46.7522 12.624C46.4642 13.072 46.0856 13.4293 45.6162 13.696C45.1469 13.952 44.6082 14.08 44.0002 14.08Z" fill="white"/>
</svg>
